X:129
T:Herd the Cows
Z:Jack Campin - http://www.campin.me.uk
S:Blaikie MS (NLS MS.1578) p38, Blaikie #123
M:C|
L:1/8
V:1 midi program 1 74
V:2 midi program 1 46 bass middle = d transpose -24
Q:1/2=80
K:E Dorian
[V:1] FA| B3    c dcBA|{G}F2 E2 D2FA|B3 c dcBA|B4    E2
[V:2] z2|[B2b2]z2 f2z2|   d2 e2 f2d2|B2z2 F2z2|B4    z2
%
[V:1] FA| B3    c dcBA|   F2 A2 B2cd|e2B2 B2AF|E4    E2||
[V:2] z2| b2   z2 f2z2|   d2 f2 g2f2|g2g2 b2B2|e2 B2 E2||
%
[V:1] Bc| d2   B2 B2cd|   e2 A2 A2Bc|d2B2 B2cd|e4    A2
[V:2] z2| G2   g2 g2z2|   c2^c2 d2z2|G2g2 g2z2|c2^c2 d2
%
[V:1] Bc| d2   B2 B2A2|   FA3   B2cd|e2B2 B2AF|E4    E2|]
[V:2] z2| G2   g2 g2z2|   d2 d2 g2f2|g2g2 b2B2|e2 B2 E2|]
W:Transcription (c) Jack Campin 2009, no mirroring or republication without permission

